public/themes/EC/images/like.svg

<?xml version="1.0" encoding="UTF-8"?>
<svg width="7px" height="7px" viewBox="0 0 7 7" version="1.1" xmlns="http://www.w3.org/2000/svg" xmlns:xlink="http://www.w3.org/1999/xlink">
    <!-- Generator: Sketch 61 (89581) - https://sketch.com -->
    <title>like</title>
    <desc>Created with Sketch.</desc>
    <g id="Page-1" stroke="none" stroke-width="1" fill="none" fill-rule="evenodd">
        <g id="Artboard" transform="translate(-104.000000, -127.000000)" fill="#000000" fill-rule="nonzero">
            <g id="lineart" transform="translate(57.000000, -2.000000)">
                <g id="like" transform="translate(47.483294, 129.929412)">
                    <path d="M5.43341176,2.12611765 L3.77976471,2.12611765 L4.016,0.236235294 C4.016,0.105597176 3.91040282,0 3.77976471,0 L2.83482353,0 C2.70418541,0 2.59858824,0.105597176 2.59858824,0.236235294 L2.36235294,2.12611765 C2.32172047,2.38810259 2.15068612,2.59858824 1.88988235,2.59858824 L1.88988235,2.36235294 C1.88988235,2.23171482 1.78428518,2.12611765 1.65364706,2.12611765 L0.236235294,2.12611765 C0.105597176,2.12611765 0,2.23171482 0,2.36235294 L0,5.43341176 C0,5.56404988 0.105597176,5.66964706 0.236235294,5.66964706 L1.65364706,5.66964706 C1.78428518,5.66964706 1.88988235,5.56404988 1.88988235,5.43341176 L1.88988235,5.19717647 C2.15068612,5.19717647 2.36235294,5.40884329 2.36235294,5.66964706 L5.19717647,5.66964706 C5.32781459,5.66964706 5.43341176,5.56404988 5.43341176,5.43341176 L5.66964706,2.36235294 C5.66964706,2.23171482 5.56404988,2.12611765 5.43341176,2.12611765 Z M1.41741176,5.19717647 L0.472470588,5.19717647 L0.472470588,2.59858824 L1.41741176,2.59858824 L1.41741176,5.19717647 Z M5.15418165,3.07105882 L4.016,3.07105882 L4.016,3.30729412 L5.13292047,3.30729412 L5.08992565,3.77976471 L4.016,3.77976471 L4.016,4.016 L5.068192,4.016 L5.02519718,4.48847059 L4.016,4.48847059 L4.016,4.72470588 L5.003936,4.72470588 L4.96094118,5.19717647 L3.07105882,5.19717647 L2.70371294,5.19717647 C2.54000188,4.91605647 2.23856565,4.72470588 1.88988235,4.72470588 L1.88988235,3.07105882 C2.41172612,3.07105882 2.74245553,2.646544 2.83482353,2.12611765 L3.07105882,0.472470588 L3.54352941,0.472470588 L3.27044141,2.59858824 L5.19717647,2.59858824 L5.15418165,3.07105882 Z" id="Shape"></path>
                    <circle id="Oval" cx="0.944941176" cy="4.72470588" r="1"></circle>
                </g>
            </g>
        </g>
    </g>
</svg>

<svg width="7" height="7" viewBox="0 0 7 7" xmlns="http://www.w3.org/2000/svg"><title>like</title><g transform="translate(.483 .93)"><path d="M5.433 2.126H3.78l.236-1.89A.236.236 0 0 0 3.78 0h-.945a.236.236 0 0 0-.236.236l-.237 1.89c-.04.262-.211.473-.472.473v-.237a.236.236 0 0 0-.236-.236H.236A.236.236 0 0 0 0 2.362v3.071c0 .131.106.237.236.237h1.418c.13 0 .236-.106.236-.237v-.236c.26 0 .472.212.472.473h2.835c.13 0 .236-.106.236-.237l.237-3.07a.236.236 0 0 0-.237-.237zM1.417 5.197H.472V2.6h.945v2.598zm3.737-2.126H4.016v.236h1.117l-.043.473H4.016v.236h1.052l-.043.472H4.016v.237h.988l-.043.472H2.704a.941.941 0 0 0-.814-.472V3.07c.522 0 .852-.424.945-.945L3.07.472h.473L3.27 2.6h1.927l-.043.472z"/><circle cx=".945" cy="4.725" r="1"/></g></svg>
